Newaita-dark/apps/256/system-file-manager.svg

<?xml version="1.0" encoding="UTF-8"?>
<svg xmlns="http://www.w3.org/2000/svg" xmlns:xlink="http://www.w3.org/1999/xlink" width="256pt" height="256pt" viewBox="0 0 256 256" version="1.1">
<defs>
<linearGradient id="linear0" gradientUnits="userSpaceOnUse" x1="254" y1="233.5" x2="254" y2="254.666672" gradientTransform="matrix(0.500048,0,0,0.500048,-0.0000305205,107.510281)">
<stop offset="0" style="stop-color:rgb(0%,0%,0%);stop-opacity:0.27451;"/>
<stop offset="1" style="stop-color:rgb(0%,0%,0%);stop-opacity:0;"/>
</linearGradient>
<radialGradient id="radial0" gradientUnits="userSpaceOnUse" cx="450.908936" cy="189.579361" fx="450.908936" fy="189.579361" r="21.166656" gradientTransform="matrix(0.00000139336,-0.62506,-1.125108,-0.000000812309,411.753016,508.762661)">
<stop offset="0" style="stop-color:rgb(0%,0%,0%);stop-opacity:0.313725;"/>
<stop offset="0.222222" style="stop-color:rgb(0%,0%,0%);stop-opacity:0.27451;"/>
<stop offset="1" style="stop-color:rgb(0%,0%,0%);stop-opacity:0;"/>
</radialGradient>
<radialGradient id="radial1" gradientUnits="userSpaceOnUse" cx="450.908936" cy="189.579361" fx="450.908936" fy="189.579361" r="21.166656" gradientTransform="matrix(-0.00000139336,0.62506,1.125108,0.000000812309,-157.728776,-60.219831)">
<stop offset="0" style="stop-color:rgb(0%,0%,0%);stop-opacity:0.313725;"/>
<stop offset="0.222222" style="stop-color:rgb(0%,0%,0%);stop-opacity:0.27451;"/>
<stop offset="1" style="stop-color:rgb(0%,0%,0%);stop-opacity:0;"/>
</radialGradient>
<radialGradient id="radial2" gradientUnits="userSpaceOnUse" cx="450.908936" cy="189.579361" fx="450.908936" fy="189.579361" r="21.166656" gradientTransform="matrix(-0.00000139336,-0.62506,1.125108,-0.000000812309,-157.728776,508.762661)">
<stop offset="0" style="stop-color:rgb(0%,0%,0%);stop-opacity:0.313725;"/>
<stop offset="0.222222" style="stop-color:rgb(0%,0%,0%);stop-opacity:0.27451;"/>
<stop offset="1" style="stop-color:rgb(0%,0%,0%);stop-opacity:0;"/>
</radialGradient>
<radialGradient id="radial3" gradientUnits="userSpaceOnUse" cx="450.908936" cy="189.579361" fx="450.908936" fy="189.579361" r="21.166656" gradientTransform="matrix(0.00000139336,0.62506,-1.125108,0.000000812309,411.753001,-60.219835)">
<stop offset="0" style="stop-color:rgb(0%,0%,0%);stop-opacity:0.313725;"/>
<stop offset="0.222222" style="stop-color:rgb(0%,0%,0%);stop-opacity:0.27451;"/>
<stop offset="1" style="stop-color:rgb(0%,0%,0%);stop-opacity:0;"/>
</radialGradient>
<linearGradient id="linear1" gradientUnits="userSpaceOnUse" x1="243.416672" y1="-168.666656" x2="243.416672" y2="233.5" gradientTransform="matrix(0.500048,0,0,0.500048,0,107.510266)">
<stop offset="0" style="stop-color:rgb(87.843137%,87.843137%,87.843137%);stop-opacity:1;"/>
<stop offset="1" style="stop-color:rgb(74.117647%,74.117647%,74.117647%);stop-opacity:1;"/>
</linearGradient>
<linearGradient id="linear2" gradientUnits="userSpaceOnUse" x1="179.916672" y1="-136.916672" x2="179.916672" y2="64.166664" gradientTransform="matrix(0.500048,0,0,0.500048,0,107.510266)">
<stop offset="0" style="stop-color:rgb(47.45098%,52.54902%,79.607843%);stop-opacity:1;"/>
<stop offset="1" style="stop-color:rgb(36.078431%,41.960784%,75.294118%);stop-opacity:1;"/>
</linearGradient>
<linearGradient id="linear3" gradientUnits="userSpaceOnUse" x1="169.333328" y1="-168.666702" x2="169.333328" y2="11.24997" gradientTransform="matrix(0.500048,0,0,0.500048,0,202.769377)">
<stop offset="0" style="stop-color:rgb(47.45098%,52.54902%,79.607843%);stop-opacity:1;"/>
<stop offset="1" style="stop-color:rgb(36.078431%,41.960784%,75.294118%);stop-opacity:1;"/>
</linearGradient>
<linearGradient id="linear4" gradientUnits="userSpaceOnUse" x1="254" y1="0.666663" x2="254" y2="-31.08334" gradientTransform="matrix(0.500048,0,0,0.500048,0,133.971128)">
<stop offset="0" style="stop-color:rgb(74.117647%,74.117647%,74.117647%);stop-opacity:1;"/>
<stop offset="1" style="stop-color:rgb(87.843137%,87.843137%,87.843137%);stop-opacity:1;"/>
</linearGradient>
<linearGradient id="linear5" gradientUnits="userSpaceOnUse" x1="254" y1="0.666663" x2="254" y2="-31.08334" gradientTransform="matrix(0.500048,0,0,0.500048,0,54.588548)">
<stop offset="0" style="stop-color:rgb(74.117647%,74.117647%,74.117647%);stop-opacity:1;"/>
<stop offset="1" style="stop-color:rgb(87.843137%,87.843137%,87.843137%);stop-opacity:1;"/>
</linearGradient>
</defs>
<g id="surface1">
<path style=" stroke:none;fill-rule:nonzero;fill:url(#linear0);" d="M 52.921875 224.269531 L 201.101562 224.269531 L 201.101562 234.855469 L 52.921875 234.855469 Z M 52.921875 224.269531 "/>
<path style=" stroke:none;fill-rule:nonzero;fill:url(#radial0);" d="M 201.101562 224.269531 L 222.269531 224.269531 L 222.269531 213.6875 L 201.101562 213.6875 Z M 201.101562 224.269531 "/>
<path style=" stroke:none;fill-rule:nonzero;fill:url(#radial1);" d="M 52.921875 224.269531 L 31.753906 224.269531 L 31.753906 234.855469 L 52.921875 234.855469 Z M 52.921875 224.269531 "/>
<path style=" stroke:none;fill-rule:nonzero;fill:url(#radial2);" d="M 52.921875 224.269531 L 31.753906 224.269531 L 31.753906 213.6875 L 52.921875 213.6875 Z M 52.921875 224.269531 "/>
<path style=" stroke:none;fill-rule:nonzero;fill:url(#radial3);" d="M 201.101562 224.269531 L 222.269531 224.269531 L 222.269531 234.855469 L 201.101562 234.855469 Z M 201.101562 224.269531 "/>
<path style=" stroke:none;fill-rule:nonzero;fill:url(#linear1);" d="M 42.335938 23.167969 L 211.6875 23.167969 C 217.53125 23.167969 222.269531 27.90625 222.269531 33.753906 L 222.269531 213.6875 C 222.269531 219.53125 217.53125 224.269531 211.6875 224.269531 L 42.335938 224.269531 C 36.492188 224.269531 31.753906 219.53125 31.753906 213.6875 L 31.753906 33.753906 C 31.753906 27.90625 36.492188 23.167969 42.335938 23.167969 Z M 42.335938 23.167969 "/>
<path style=" stroke:none;fill-rule:nonzero;fill:rgb(90.196079%,90.196079%,90.196079%);fill-opacity:0.588235;" d="M 42.335938 23.167969 C 36.472656 23.167969 31.753906 27.890625 31.753906 33.753906 L 31.753906 35.078125 C 31.753906 29.210938 36.472656 24.492188 42.335938 24.492188 L 211.6875 24.492188 C 217.550781 24.492188 222.269531 29.210938 222.269531 35.078125 L 222.269531 33.753906 C 222.269531 27.890625 217.550781 23.167969 211.6875 23.167969 Z M 42.335938 23.167969 "/>
<path style=" stroke:none;fill-rule:nonzero;fill:url(#linear2);" d="M 52.921875 39.046875 L 201.101562 39.046875 C 204.023438 39.046875 206.394531 41.414062 206.394531 44.335938 L 206.394531 102.550781 C 206.394531 105.472656 204.023438 107.84375 201.101562 107.84375 L 52.921875 107.84375 C 50 107.84375 47.628906 105.472656 47.628906 102.550781 L 47.628906 44.335938 C 47.628906 41.414062 50 39.046875 52.921875 39.046875 Z M 52.921875 39.046875 "/>
<path style=" stroke:none;fill-rule:nonzero;fill:url(#linear3);" d="M 52.921875 118.429688 L 201.101562 118.429688 C 204.023438 118.429688 206.394531 120.796875 206.394531 123.71875 L 206.394531 203.101562 C 206.394531 206.027344 204.023438 208.394531 201.101562 208.394531 L 52.921875 208.394531 C 50 208.394531 47.628906 206.027344 47.628906 203.101562 L 47.628906 123.71875 C 47.628906 120.796875 50 118.429688 52.921875 118.429688 Z M 52.921875 118.429688 "/>
<path style=" stroke:none;fill-rule:nonzero;fill:rgb(100%,100%,100%);fill-opacity:0.392157;" d="M 52.921875 39.046875 C 49.988281 39.046875 47.628906 41.40625 47.628906 44.335938 L 47.628906 46.984375 C 47.628906 44.050781 49.988281 41.691406 52.921875 41.691406 L 201.101562 41.691406 C 204.035156 41.691406 206.394531 44.050781 206.394531 46.984375 L 206.394531 44.335938 C 206.394531 41.40625 204.035156 39.046875 201.101562 39.046875 Z M 52.921875 39.046875 "/>
<path style=" stroke:none;fill-rule:nonzero;fill:rgb(0%,0%,0%);fill-opacity:0.235294;" d="M 52.921875 111.152344 C 49.988281 111.152344 47.628906 108.789062 47.628906 105.859375 L 47.628906 103.214844 C 47.628906 106.144531 49.988281 108.503906 52.921875 108.503906 L 201.101562 108.503906 C 204.035156 108.503906 206.394531 106.144531 206.394531 103.214844 L 206.394531 105.859375 C 206.394531 108.789062 204.035156 111.152344 201.101562 111.152344 Z M 52.921875 111.152344 "/>
<path style="fill:none;stroke-width:3;stroke-linecap:round;stroke-linejoin:miter;stroke:rgb(12.941177%,12.941177%,12.941177%);stroke-opacity:1;stroke-miterlimit:4;" d="M 105.833643 -136.913707 L 402.16472 -136.913707 C 408.007912 -136.913707 412.749647 -132.179784 412.749647 -126.336592 L 412.749647 -9.918022 C 412.749647 -4.07483 408.007912 0.666905 402.16472 0.666905 L 105.833643 0.666905 C 99.990451 0.666905 95.248717 -4.07483 95.248717 -9.918022 L 95.248717 -126.336592 C 95.248717 -132.179784 99.990451 -136.913707 105.833643 -136.913707 Z M 105.833643 -136.913707 " transform="matrix(0.500048,0,0,0.500048,0,107.510266)"/>
<path style=" stroke:none;fill-rule:nonzero;fill:rgb(100%,100%,100%);fill-opacity:0.392157;" d="M 52.921875 118.429688 C 49.988281 118.429688 47.628906 120.789062 47.628906 123.71875 L 47.628906 126.367188 C 47.628906 123.433594 49.988281 121.074219 52.921875 121.074219 L 201.101562 121.074219 C 204.035156 121.074219 206.394531 123.433594 206.394531 126.367188 L 206.394531 123.71875 C 206.394531 120.789062 204.035156 118.429688 201.101562 118.429688 Z M 52.921875 118.429688 "/>
<path style=" stroke:none;fill-rule:nonzero;fill:rgb(0%,0%,0%);fill-opacity:0.235294;" d="M 52.921875 211.703125 C 49.988281 211.703125 47.628906 209.34375 47.628906 206.410156 L 47.628906 203.765625 C 47.628906 206.695312 49.988281 209.054688 52.921875 209.054688 L 201.101562 209.054688 C 204.035156 209.054688 206.394531 206.695312 206.394531 203.765625 L 206.394531 206.410156 C 206.394531 209.34375 204.035156 211.703125 201.101562 211.703125 Z M 52.921875 211.703125 "/>
<path style="fill:none;stroke-width:3;stroke-linecap:round;stroke-linejoin:miter;stroke:rgb(12.941177%,12.941177%,12.941177%);stroke-opacity:1;stroke-miterlimit:4;" d="M 105.833643 21.836758 L 402.16472 21.836758 C 408.007912 21.836758 412.749647 26.570681 412.749647 32.413873 L 412.749647 191.164338 C 412.749647 197.015342 408.007912 201.749265 402.16472 201.749265 L 105.833643 201.749265 C 99.990451 201.749265 95.248717 197.015342 95.248717 191.164338 L 95.248717 32.413873 C 95.248717 26.570681 99.990451 21.836758 105.833643 21.836758 Z M 105.833643 21.836758 " transform="matrix(0.500048,0,0,0.500048,0,107.510266)"/>
<path style=" stroke:none;fill-rule:nonzero;fill:rgb(100%,100%,100%);fill-opacity:0.705882;" d="M 42.335938 23.167969 C 36.472656 23.167969 31.753906 27.890625 31.753906 33.753906 L 31.753906 37.722656 C 31.753906 31.859375 36.472656 27.136719 42.335938 27.136719 L 211.6875 27.136719 C 217.550781 27.136719 222.269531 31.859375 222.269531 37.722656 L 222.269531 33.753906 C 222.269531 27.890625 217.550781 23.167969 211.6875 23.167969 Z M 42.335938 23.167969 "/>
<path style=" stroke:none;fill-rule:nonzero;fill:rgb(0%,0%,0%);fill-opacity:0.235294;" d="M 42.335938 224.269531 C 36.472656 224.269531 31.753906 219.550781 31.753906 213.6875 L 31.753906 209.71875 C 31.753906 215.582031 36.472656 220.300781 42.335938 220.300781 L 211.6875 220.300781 C 217.550781 220.300781 222.269531 215.582031 222.269531 209.71875 L 222.269531 213.6875 C 222.269531 219.550781 217.550781 224.269531 211.6875 224.269531 Z M 42.335938 224.269531 "/>
<path style=" stroke:none;fill-rule:nonzero;fill:rgb(12.941177%,12.941177%,12.941177%);fill-opacity:1;" d="M 42.335938 22.417969 C 36.070312 22.417969 31.003906 27.488281 31.003906 33.753906 L 31.003906 213.6875 C 31.003906 219.953125 36.070312 225.023438 42.335938 225.023438 L 211.6875 225.023438 C 217.953125 225.023438 223.019531 219.953125 223.019531 213.6875 L 223.019531 33.753906 C 223.019531 27.488281 217.953125 22.417969 211.6875 22.417969 Z M 42.335938 23.917969 L 211.6875 23.917969 C 217.148438 23.917969 221.519531 28.292969 221.519531 33.753906 L 221.519531 213.6875 C 221.519531 219.148438 217.148438 223.519531 211.6875 223.519531 L 42.335938 223.519531 C 36.875 223.519531 32.503906 219.148438 32.503906 213.6875 L 32.503906 33.753906 C 32.503906 28.292969 36.875 23.917969 42.335938 23.917969 Z M 42.335938 23.917969 "/>
<path style=" stroke:none;fill-rule:nonzero;fill:url(#linear4);" d="M 108.488281 118.429688 L 108.488281 129.011719 C 108.488281 131.945312 110.851562 134.304688 113.78125 134.304688 L 140.242188 134.304688 C 143.175781 134.304688 145.535156 131.945312 145.535156 129.011719 L 145.535156 118.429688 Z M 108.488281 118.429688 "/>
<path style=" stroke:none;fill-rule:nonzero;fill:rgb(0%,0%,0%);fill-opacity:0.235294;" d="M 108.488281 129.011719 L 108.488281 131.660156 C 108.488281 134.589844 110.851562 136.949219 113.78125 136.949219 L 140.242188 136.949219 C 143.175781 136.949219 145.535156 134.589844 145.535156 131.660156 L 145.535156 129.011719 C 145.535156 131.945312 143.175781 134.304688 140.242188 134.304688 L 113.78125 134.304688 C 110.851562 134.304688 108.488281 131.945312 108.488281 129.011719 Z M 108.488281 129.011719 "/>
<path style=" stroke:none;fill-rule:nonzero;fill:rgb(100%,100%,100%);fill-opacity:0.784314;" d="M 108.488281 118.429688 L 108.488281 121.074219 L 145.535156 121.074219 L 145.535156 118.429688 Z M 108.488281 118.429688 "/>
<path style=" stroke:none;fill-rule:nonzero;fill:rgb(12.941177%,12.941177%,12.941177%);fill-opacity:1;" d="M 107.738281 117.679688 L 107.738281 129.011719 C 107.738281 132.347656 110.445312 135.054688 113.78125 135.054688 L 140.242188 135.054688 C 143.578125 135.054688 146.285156 132.347656 146.285156 129.011719 L 146.285156 117.679688 Z M 109.238281 119.179688 L 144.785156 119.179688 L 144.785156 129.011719 C 144.785156 131.542969 142.773438 133.554688 140.242188 133.554688 L 113.78125 133.554688 C 111.253906 133.554688 109.238281 131.542969 109.238281 129.011719 Z M 109.238281 119.179688 "/>
<path style=" stroke:none;fill-rule:nonzero;fill:url(#linear5);" d="M 108.488281 39.046875 L 108.488281 49.628906 C 108.488281 52.5625 110.851562 54.921875 113.78125 54.921875 L 140.242188 54.921875 C 143.175781 54.921875 145.535156 52.5625 145.535156 49.628906 L 145.535156 39.046875 Z M 108.488281 39.046875 "/>
<path style=" stroke:none;fill-rule:nonzero;fill:rgb(0%,0%,0%);fill-opacity:0.235294;" d="M 108.488281 49.628906 L 108.488281 52.277344 C 108.488281 55.207031 110.851562 57.566406 113.78125 57.566406 L 140.242188 57.566406 C 143.175781 57.566406 145.535156 55.207031 145.535156 52.277344 L 145.535156 49.628906 C 145.535156 52.5625 143.175781 54.921875 140.242188 54.921875 L 113.78125 54.921875 C 110.851562 54.921875 108.488281 52.5625 108.488281 49.628906 Z M 108.488281 49.628906 "/>
<path style=" stroke:none;fill-rule:nonzero;fill:rgb(100%,100%,100%);fill-opacity:0.784314;" d="M 108.488281 39.046875 L 108.488281 41.691406 L 145.535156 41.691406 L 145.535156 39.046875 Z M 108.488281 39.046875 "/>
<path style=" stroke:none;fill-rule:nonzero;fill:rgb(12.941177%,12.941177%,12.941177%);fill-opacity:1;" d="M 107.738281 38.296875 L 107.738281 49.628906 C 107.738281 52.964844 110.445312 55.671875 113.78125 55.671875 L 140.242188 55.671875 C 143.578125 55.671875 146.285156 52.964844 146.285156 49.628906 L 146.285156 38.296875 Z M 109.238281 39.796875 L 144.785156 39.796875 L 144.785156 49.628906 C 144.785156 52.160156 142.773438 54.171875 140.242188 54.171875 L 113.78125 54.171875 C 111.253906 54.171875 109.238281 52.160156 109.238281 49.628906 Z M 109.238281 39.796875 "/>
</g>
</svg>

<svg xmlns="http://www.w3.org/2000/svg" width="256pt" height="256pt" viewBox="0 0 256 256"><defs><linearGradient id="a" gradientUnits="userSpaceOnUse" x1="254" y1="233.5" x2="254" y2="254.667" gradientTransform="matrix(.50005 0 0 .50005 0 107.51)"><stop offset="0" stop-opacity=".275"/><stop offset="1" stop-opacity="0"/></linearGradient><radialGradient id="b" gradientUnits="userSpaceOnUse" cx="450.909" cy="189.579" fx="450.909" fy="189.579" r="21.167" gradientTransform="matrix(0 -.62506 -1.1251 0 411.753 508.763)"><stop offset="0" stop-opacity=".314"/><stop offset=".222" stop-opacity=".275"/><stop offset="1" stop-opacity="0"/></radialGradient><radialGradient id="c" gradientUnits="userSpaceOnUse" cx="450.909" cy="189.579" fx="450.909" fy="189.579" r="21.167" gradientTransform="matrix(0 .62506 1.1251 0 -157.729 -60.22)"><stop offset="0" stop-opacity=".314"/><stop offset=".222" stop-opacity=".275"/><stop offset="1" stop-opacity="0"/></radialGradient><radialGradient id="d" gradientUnits="userSpaceOnUse" cx="450.909" cy="189.579" fx="450.909" fy="189.579" r="21.167" gradientTransform="matrix(0 -.62506 1.1251 0 -157.729 508.763)"><stop offset="0" stop-opacity=".314"/><stop offset=".222" stop-opacity=".275"/><stop offset="1" stop-opacity="0"/></radialGradient><radialGradient id="e" gradientUnits="userSpaceOnUse" cx="450.909" cy="189.579" fx="450.909" fy="189.579" r="21.167" gradientTransform="matrix(0 .62506 -1.1251 0 411.753 -60.22)"><stop offset="0" stop-opacity=".314"/><stop offset=".222" stop-opacity=".275"/><stop offset="1" stop-opacity="0"/></radialGradient><linearGradient id="f" gradientUnits="userSpaceOnUse" x1="243.417" y1="-168.667" x2="243.417" y2="233.5" gradientTransform="matrix(.50005 0 0 .50005 0 107.51)"><stop offset="0" stop-color="#e0e0e0"/><stop offset="1" stop-color="#bdbdbd"/></linearGradient><linearGradient id="g" gradientUnits="userSpaceOnUse" x1="179.917" y1="-136.917" x2="179.917" y2="64.167" gradientTransform="matrix(.50005 0 0 .50005 0 107.51)"><stop offset="0" stop-color="#7986cb"/><stop offset="1" stop-color="#5c6bc0"/></linearGradient><linearGradient id="h" gradientUnits="userSpaceOnUse" x1="169.333" y1="-168.667" x2="169.333" y2="11.25" gradientTransform="matrix(.50005 0 0 .50005 0 202.77)"><stop offset="0" stop-color="#7986cb"/><stop offset="1" stop-color="#5c6bc0"/></linearGradient><linearGradient id="i" gradientUnits="userSpaceOnUse" x1="254" y1=".667" x2="254" y2="-31.083" gradientTransform="matrix(.50005 0 0 .50005 0 133.971)"><stop offset="0" stop-color="#bdbdbd"/><stop offset="1" stop-color="#e0e0e0"/></linearGradient><linearGradient id="j" gradientUnits="userSpaceOnUse" x1="254" y1=".667" x2="254" y2="-31.083" gradientTransform="matrix(.50005 0 0 .50005 0 54.589)"><stop offset="0" stop-color="#bdbdbd"/><stop offset="1" stop-color="#e0e0e0"/></linearGradient></defs><path d="M52.922 224.27h148.18v10.585H52.922zm0 0" fill="url(#a)"/><path d="M201.102 224.27h21.168v-10.583h-21.168zm0 0" fill="url(#b)"/><path d="M52.922 224.27H31.754v10.585h21.168zm0 0" fill="url(#c)"/><path d="M52.922 224.27H31.754v-10.583h21.168zm0 0" fill="url(#d)"/><path d="M201.102 224.27h21.168v10.585h-21.168zm0 0" fill="url(#e)"/><path d="M42.336 23.168h169.351c5.844 0 10.583 4.738 10.583 10.586v179.934c0 5.843-4.739 10.582-10.583 10.582H42.337c-5.844 0-10.582-4.739-10.582-10.583V33.755c0-5.848 4.738-10.586 10.582-10.586zm0 0" fill="url(#f)"/><path d="M42.336 23.168a10.561 10.561 0 0 0-10.582 10.586v1.324a10.559 10.559 0 0 1 10.582-10.586h169.351a10.559 10.559 0 0 1 10.583 10.586v-1.324a10.561 10.561 0 0 0-10.583-10.586zm0 0" fill="#e6e6e6" fill-opacity=".588"/><path d="M52.922 39.047h148.18a5.291 5.291 0 0 1 5.293 5.289v58.215a5.295 5.295 0 0 1-5.293 5.293H52.922a5.295 5.295 0 0 1-5.293-5.293V44.336a5.291 5.291 0 0 1 5.293-5.29zm0 0" fill="url(#g)"/><path d="M52.922 118.43h148.18a5.291 5.291 0 0 1 5.293 5.289v79.383a5.292 5.292 0 0 1-5.293 5.293H52.922a5.292 5.292 0 0 1-5.293-5.293v-79.383a5.291 5.291 0 0 1 5.293-5.29zm0 0" fill="url(#h)"/><path d="M52.922 39.047a5.279 5.279 0 0 0-5.293 5.289v2.648a5.28 5.28 0 0 1 5.293-5.293h148.18a5.28 5.28 0 0 1 5.293 5.293v-2.648c0-2.93-2.36-5.29-5.293-5.29zm0 0" fill="#fff" fill-opacity=".392"/><path d="M52.922 111.152a5.282 5.282 0 0 1-5.293-5.293v-2.644c0 2.93 2.36 5.289 5.293 5.289h148.18a5.279 5.279 0 0 0 5.293-5.29v2.645c0 2.93-2.36 5.293-5.293 5.293zm0 0" fill-opacity=".235"/><path d="M52.922 39.047h148.18a5.291 5.291 0 0 1 5.293 5.289v58.215a5.295 5.295 0 0 1-5.293 5.293H52.922a5.295 5.295 0 0 1-5.293-5.293V44.336a5.291 5.291 0 0 1 5.293-5.29zm0 0" fill="none" stroke-width="1.50015" stroke-linecap="round" stroke="#212121"/><path d="M52.922 118.43a5.279 5.279 0 0 0-5.293 5.289v2.648a5.28 5.28 0 0 1 5.293-5.293h148.18a5.28 5.28 0 0 1 5.293 5.293v-2.648c0-2.93-2.36-5.29-5.293-5.29zm0 0" fill="#fff" fill-opacity=".392"/><path d="M52.922 211.703a5.28 5.28 0 0 1-5.293-5.293v-2.644c0 2.93 2.36 5.289 5.293 5.289h148.18a5.279 5.279 0 0 0 5.293-5.29v2.645a5.28 5.28 0 0 1-5.293 5.293zm0 0" fill-opacity=".235"/><path d="M52.922 118.43h148.18a5.291 5.291 0 0 1 5.293 5.289v79.383a5.292 5.292 0 0 1-5.293 5.293H52.922a5.292 5.292 0 0 1-5.293-5.293v-79.383a5.291 5.291 0 0 1 5.293-5.29zm0 0" fill="none" stroke-width="1.50015" stroke-linecap="round" stroke="#212121"/><path d="M42.336 23.168a10.561 10.561 0 0 0-10.582 10.586v3.969a10.561 10.561 0 0 1 10.582-10.586h169.351a10.561 10.561 0 0 1 10.583 10.586v-3.97a10.561 10.561 0 0 0-10.583-10.585zm0 0" fill="#fff" fill-opacity=".706"/><path d="M42.336 224.27a10.558 10.558 0 0 1-10.582-10.583v-3.968A10.558 10.558 0 0 0 42.336 220.3h169.351a10.558 10.558 0 0 0 10.583-10.582v3.969a10.558 10.558 0 0 1-10.583 10.582zm0 0" fill-opacity=".235"/><path d="M42.336 22.418c-6.266 0-11.332 5.07-11.332 11.336v179.934c0 6.265 5.066 11.335 11.332 11.335h169.351c6.266 0 11.333-5.07 11.333-11.335V33.754c0-6.266-5.067-11.336-11.333-11.336zm0 1.5h169.351a9.796 9.796 0 0 1 9.833 9.836v179.934a9.793 9.793 0 0 1-9.833 9.832H42.337a9.793 9.793 0 0 1-9.832-9.833V33.755a9.796 9.796 0 0 1 9.832-9.836zm0 0" fill="#212121"/><path d="M108.488 118.43v10.582a5.282 5.282 0 0 0 5.293 5.293h26.461a5.28 5.28 0 0 0 5.293-5.293V118.43zm0 0" fill="url(#i)"/><path d="M108.488 129.012v2.648c0 2.93 2.364 5.29 5.293 5.29h26.461a5.279 5.279 0 0 0 5.293-5.29v-2.648a5.28 5.28 0 0 1-5.293 5.293h-26.46a5.282 5.282 0 0 1-5.294-5.293zm0 0" fill-opacity=".235"/><path d="M108.488 118.43v2.644h37.047v-2.644zm0 0" fill="#fff" fill-opacity=".784"/><path d="M107.738 117.68v11.332a6.045 6.045 0 0 0 6.043 6.043h26.461a6.045 6.045 0 0 0 6.043-6.043V117.68zm1.5 1.5h35.547v9.832a4.515 4.515 0 0 1-4.543 4.543h-26.46a4.517 4.517 0 0 1-4.544-4.543zm0 0" fill="#212121"/><path d="M108.488 39.047v10.582a5.282 5.282 0 0 0 5.293 5.293h26.461a5.28 5.28 0 0 0 5.293-5.293V39.047zm0 0" fill="url(#j)"/><path d="M108.488 49.629v2.648c0 2.93 2.364 5.29 5.293 5.29h26.461a5.279 5.279 0 0 0 5.293-5.29V49.63a5.28 5.28 0 0 1-5.293 5.293h-26.46a5.282 5.282 0 0 1-5.294-5.293zm0 0" fill-opacity=".235"/><path d="M108.488 39.047v2.644h37.047v-2.644zm0 0" fill="#fff" fill-opacity=".784"/><path d="M107.738 38.297v11.332a6.045 6.045 0 0 0 6.043 6.043h26.461a6.045 6.045 0 0 0 6.043-6.043V38.297zm1.5 1.5h35.547v9.832a4.515 4.515 0 0 1-4.543 4.543h-26.46a4.517 4.517 0 0 1-4.544-4.543zm0 0" fill="#212121"/></svg>
